public/images/icons/re-icons/re-info.svg

<svg xmlns="http://www.w3.org/2000/svg" width="16" height="17" viewBox="0 0 16 17" fill="none">
    <circle cx="8" cy="8.5" r="8" fill="#0084FF"/>
    <path fill-rule="evenodd" clip-rule="evenodd" d="M8.13408 3.71094C8.55886 3.71094 8.90322 4.07493 8.90322 4.52394C8.90322 4.97295 8.55886 5.33695 8.13408 5.33695C7.70929 5.33695 7.36494 4.97295 7.36494 4.52394C7.36494 4.07493 7.70929 3.71094 8.13408 3.71094ZM10.2002 12.9928H6.09375V11.7781H7.57208V8.11219H6.60706V6.89746H8.72703V11.7781H10.2002V12.9928Z" fill="white"/>
</svg>

<svg fill="none" viewBox="0 0 16 17"><circle cx="8" cy="8.5" r="8" fill="#0084FF"/><path fill="#fff" fill-rule="evenodd" d="M8.134 3.71c.425 0 .77.365.77.814 0 .449-.345.813-.77.813-.425 0-.77-.364-.77-.813 0-.45.345-.813.77-.813zm2.066 9.283H6.094v-1.215h1.478V8.112h-.965V6.897h2.12v4.881H10.2v1.215z" clip-rule="evenodd"/></svg>
